spx-gui/src/components/ui/error/default-error.svg

<svg width="100" height="100" viewBox="0 0 100 100" fill="none" xmlns="http://www.w3.org/2000/svg">
  <path d="M1.72705 49.8159C1.72705 87.0803 41.7271 110.37 73.7271 91.7383C88.5783 83.0911 97.7271 67.1104 97.7271 49.8159C97.7271 12.5516 57.7271 -10.7386 25.727 7.89356C10.8758 16.5408 1.72705 32.5215 1.72705 49.8159Z" fill="#EAEFF3"/>
  <path d="M10.9866 26.2189C10.9866 24.4022 12.4593 22.9294 14.2761 22.9294H59.4517C61.2684 22.9294 62.7412 24.4022 62.7412 26.2189V55.7578C62.7412 57.5745 61.2684 59.0473 59.4517 59.0473H14.2761C12.4593 59.0473 10.9866 57.5745 10.9866 55.7578V26.2189Z" fill="white"/>
  <path d="M10.9866 26.2189C10.9866 24.4022 12.4593 22.9294 14.2761 22.9294H59.4517C61.2684 22.9294 62.7412 24.4022 62.7412 26.2189V55.7578C62.7412 57.5746 61.2684 59.0473 59.4517 59.0473H14.2761C12.4593 59.0473 10.9866 57.5746 10.9866 55.7578V26.2189Z" stroke="#24292F" stroke-width="0.822371" stroke-linecap="round" stroke-linejoin="round"/>
  <path d="M62.6701 52.7097L62.7038 55.7212C62.7242 57.5522 61.2456 59.0475 59.4145 59.0475H14.2393C12.4369 59.0475 10.9702 57.597 10.95 55.7947L10.9155 52.7097H62.6701Z" stroke="#24292F" stroke-width="0.822371" stroke-linecap="round" stroke-linejoin="round"/>
  <path d="M59.3641 23.3071H14.3269C12.6883 23.3067 11.3596 24.5724 11.3596 26.134V29.4602H62.3303V26.134C62.3303 24.5728 61.0023 23.3071 59.3641 23.3071Z" fill="#FFD350"/>
  <path d="M13.998 26.6693C13.998 27.5628 14.9653 28.1212 15.7391 27.6745C16.0982 27.4671 16.3194 27.084 16.3194 26.6693C16.3194 25.7758 15.3522 25.2173 14.5784 25.6641C14.2192 25.8714 13.998 26.2546 13.998 26.6693Z" fill="white"/>
  <path d="M17.9871 26.6693C17.9871 27.5628 18.9543 28.1212 19.7281 27.6745C20.0872 27.4671 20.3085 27.084 20.3085 26.6693C20.3085 25.7758 19.3412 25.2173 18.5674 25.6641C18.2083 25.8714 17.9871 26.2546 17.9871 26.6693Z" fill="white"/>
  <path d="M21.9753 26.6693C21.9753 27.5628 22.9426 28.1212 23.7164 27.6745C24.0755 27.4671 24.2967 27.084 24.2967 26.6693C24.2967 25.7758 23.3295 25.2173 22.5557 25.6641C22.1965 25.8714 21.9753 26.2546 21.9753 26.6693Z" fill="white"/>
  <rect x="53.6113" y="46.5742" width="3.78663" height="3.7857" rx="1.89285" fill="#F8F8F8"/>
  <path d="M85.7843 56.6124C87.285 50.48 81.5846 45.0228 75.5234 46.7892C74.5463 47.074 73.6307 47.5382 72.8235 48.1581C64.6163 38.4841 49.0144 41.3223 44.7401 53.2669C44.1015 55.0514 43.7756 56.9326 43.7766 58.8278C43.7766 58.8633 43.7813 58.8968 43.7823 58.9322C43.4395 58.875 43.0933 58.8401 42.746 58.8278C36.3995 58.8341 32.4398 65.7083 35.6185 71.2013C37.0907 73.7457 39.8064 75.3135 42.746 75.3164H79.8456C87.7668 75.3281 92.7302 66.7603 88.7797 59.8944C88.0322 58.5953 87.0099 57.4752 85.7843 56.6124Z" fill="white"/>
  <path d="M34.9463 64.3927C36.0825 67.7323 39.2174 69.9789 42.7448 69.9816H79.8444C84.5119 69.9786 88.594 66.8371 89.7922 62.3259C91.5661 68.8765 86.6318 75.3229 79.8453 75.3213H42.7458C37.0862 75.3172 33.1107 69.7461 34.9472 64.3927H34.9463Z" fill="#EAEFF3"/>
  <path d="M85.7843 56.6124C87.285 50.48 81.5846 45.0228 75.5234 46.7892C74.5463 47.074 73.6307 47.5382 72.8235 48.1581C64.6163 38.4841 49.0144 41.3223 44.7401 53.2669C44.1015 55.0514 43.7756 56.9326 43.7766 58.8278C43.7766 58.8633 43.7813 58.8968 43.7823 58.9322C43.4395 58.875 43.0933 58.8401 42.746 58.8278C36.3995 58.8341 32.4398 65.7083 35.6185 71.2013C37.0907 73.7457 39.8064 75.3135 42.746 75.3164H79.8456C87.7668 75.3281 92.7302 66.7603 88.7797 59.8944C88.0322 58.5953 87.0099 57.4752 85.7843 56.6124Z" stroke="#24292F" stroke-width="1.1283" stroke-linecap="round" stroke-linejoin="round"/>
  <path d="M56.3207 67.1983C56.1163 67.1983 55.9527 67.1165 55.7891 66.9938C55.5029 66.7076 55.5029 66.2169 55.7891 65.9307C57.6701 64.0906 60.1644 63.0684 62.8223 63.0684C65.4802 63.0684 67.9745 64.0906 69.8555 65.9307C70.1417 66.2169 70.1417 66.7076 69.8555 66.9938C69.5692 67.2801 69.0786 67.2801 68.7923 66.9938C67.1976 65.3991 65.0713 64.5404 62.8223 64.5404C60.5733 64.5404 58.447 65.3991 56.8523 66.9938C56.6887 67.1165 56.5252 67.1983 56.3207 67.1983Z" fill="#EAEFF3"/>
  <path d="M58.8973 56.2394L59.8787 55.2581C60.1649 54.9718 60.1649 54.4811 59.8787 54.1949C59.5924 53.9087 59.1018 53.9087 58.8155 54.1949L57.8342 55.1763L56.8528 54.1949C56.5665 53.9087 56.0759 53.9087 55.7896 54.1949C55.5034 54.4811 55.5034 54.9718 55.7896 55.2581L56.771 56.2394L55.7896 57.2208C55.5034 57.507 55.5034 57.9977 55.7896 58.284C55.9532 58.4475 56.1168 58.4884 56.3212 58.4884C56.5257 58.4884 56.6892 58.4066 56.8528 58.284L57.8342 57.3026L58.8155 58.284C58.9791 58.4475 59.1426 58.4884 59.3471 58.4884C59.5516 58.4884 59.7151 58.4066 59.8787 58.284C60.1649 57.9977 60.1649 57.507 59.8787 57.2208L58.8973 56.2394Z" fill="#EAEFF3"/>
  <path d="M68.8331 56.2394L69.8145 55.2581C70.1007 54.9718 70.1007 54.4811 69.8145 54.1949C69.5282 53.9087 69.0375 53.9087 68.7513 54.1949L67.7699 55.1763L66.7886 54.1949C66.5023 53.9087 66.0117 53.9087 65.7254 54.1949C65.4392 54.4811 65.4392 54.9718 65.7254 55.2581L66.7068 56.2394L65.7254 57.2208C65.4392 57.507 65.4392 57.9977 65.7254 58.284C65.889 58.4475 66.0525 58.4884 66.257 58.4884C66.4614 58.4884 66.625 58.4066 66.7886 58.284L67.7699 57.3026L68.7513 58.284C68.9149 58.4475 69.0784 58.4884 69.2829 58.4884C69.4873 58.4884 69.6509 58.4066 69.8145 58.284C70.1007 57.9977 70.1007 57.507 69.8145 57.2208L68.8331 56.2394Z" fill="#EAEFF3"/>
  <path d="M40.5258 36.385C40.5258 36.385 36.1697 40.4031 32.0046 44.2946" stroke="#FF6242" stroke-width="2.151" stroke-linecap="round"/>
  <path d="M32.0047 36.385C32.0047 36.385 36.3608 40.4031 40.5259 44.2946" stroke="#FF6242" stroke-width="2.151" stroke-linecap="round"/>
  <path d="M49.3481 81.4291C49.34 82.8046 60.1493 83.6655 68.8049 82.9787C72.8284 82.6594 75.3063 82.0685 75.3026 81.4291C75.3107 80.0536 64.5014 79.1927 55.8459 79.8795C51.8223 80.1988 49.3444 80.7897 49.3481 81.4291Z" fill="#D9DFE5"/>
</svg>

<svg width="100" height="100" viewBox="0 0 100 100" fill="none" xmlns="http://www.w3.org/2000/svg">
  <path fill="#eaeff3" d="M1.727 49.816c0 37.264 40 60.554 72 41.922 14.851-8.647 24-24.628 24-41.922 0-37.264-40-60.555-72-41.922-14.851 8.647-24 24.628-24 41.922"/>
  <path fill="#fff" d="M10.987 26.219a3.29 3.29 0 0 1 3.29-3.29h45.175a3.29 3.29 0 0 1 3.29 3.29v29.539a3.29 3.29 0 0 1-3.29 3.29H14.276a3.29 3.29 0 0 1-3.29-3.29z"/>
  <path stroke="#24292f" stroke-linecap="round" stroke-linejoin="round" stroke-width=".822" d="M10.987 26.219a3.29 3.29 0 0 1 3.29-3.29h45.175a3.29 3.29 0 0 1 3.29 3.29v29.539a3.29 3.29 0 0 1-3.29 3.29H14.276a3.29 3.29 0 0 1-3.29-3.29z"/>
  <path stroke="#24292f" stroke-linecap="round" stroke-linejoin="round" stroke-width=".822" d="m62.67 52.71.034 3.011a3.29 3.29 0 0 1-3.29 3.327H14.24a3.29 3.29 0 0 1-3.289-3.253l-.034-3.085z"/>
  <path fill="#ffd350" d="M59.364 23.307H14.327c-1.639 0-2.967 1.265-2.967 2.827v3.326h50.97v-3.326c0-1.561-1.328-2.827-2.966-2.827"/>
  <path fill="#fff" d="M13.998 26.67a1.16 1.16 0 1 0 2.322 0 1.16 1.16 0 0 0-2.322 0m3.989 0a1.16 1.16 0 1 0 2.321 0 1.16 1.16 0 0 0-2.32 0m3.987 0a1.16 1.16 0 1 0 2.322 0 1.16 1.16 0 0 0-2.322 0"/>
  <rect width="3.787" height="3.786" x="53.611" y="46.574" fill="#f8f8f8" rx="1.893"/>
  <path fill="#fff" d="M85.784 56.612c1.501-6.132-4.2-11.59-10.26-9.823a8.2 8.2 0 0 0-2.7 1.37c-8.208-9.675-23.81-6.837-28.084 5.108a16.5 16.5 0 0 0-.963 5.56l.005.105a8 8 0 0 0-1.036-.104c-6.346.006-10.306 6.88-7.128 12.373a8.24 8.24 0 0 0 7.128 4.115h37.1c7.92.012 12.884-8.556 8.934-15.422a10.3 10.3 0 0 0-2.996-3.282"/>
  <path fill="#eaeff3" d="M34.946 64.393a8.24 8.24 0 0 0 7.799 5.589h37.1a10.3 10.3 0 0 0 9.947-7.656c1.774 6.55-3.16 12.997-9.947 12.995h-37.1c-5.659-.004-9.634-5.575-7.798-10.928"/>
  <path stroke="#24292f" stroke-linecap="round" stroke-linejoin="round" stroke-width="1.128" d="M85.784 56.612c1.501-6.132-4.2-11.59-10.26-9.823a8.2 8.2 0 0 0-2.7 1.37c-8.208-9.675-23.81-6.837-28.084 5.108a16.5 16.5 0 0 0-.963 5.56l.005.105a8 8 0 0 0-1.036-.104c-6.346.006-10.306 6.88-7.128 12.373a8.24 8.24 0 0 0 7.128 4.115h37.1c7.92.012 12.884-8.556 8.934-15.422a10.3 10.3 0 0 0-2.996-3.282"/>
  <path fill="#eaeff3" d="M56.32 67.198c-.204 0-.367-.081-.53-.204a.765.765 0 0 1 0-1.063 10 10 0 0 1 7.032-2.863 10 10 0 0 1 7.034 2.863.765.765 0 0 1 0 1.063.765.765 0 0 1-1.064 0c-1.594-1.595-3.72-2.454-5.97-2.454s-4.375.86-5.97 2.454c-.163.123-.327.204-.531.204m2.576-10.958.982-.982a.766.766 0 0 0 0-1.063.766.766 0 0 0-1.063 0l-.982.981-.981-.981a.766.766 0 0 0-1.063 0 .766.766 0 0 0 0 1.063l.981.981-.981.982a.766.766 0 0 0 0 1.063c.163.163.327.204.531.204s.368-.081.532-.204l.981-.981.981.981c.164.163.328.204.532.204s.368-.081.532-.204a.766.766 0 0 0 0-1.063zm9.936 0 .981-.982a.766.766 0 0 0 0-1.063.766.766 0 0 0-1.063 0l-.981.981-.981-.981a.766.766 0 0 0-1.064 0 .766.766 0 0 0 0 1.063l.982.981-.982.982a.766.766 0 0 0 0 1.063c.164.163.328.204.532.204s.368-.081.532-.204l.98-.981.982.981c.164.163.327.204.532.204.204 0 .368-.081.531-.204a.766.766 0 0 0 0-1.063z"/>
  <path stroke="#ff6242" stroke-linecap="round" stroke-width="2.151" d="m40.526 36.385-8.521 7.91m0-7.91 8.52 7.91"/>
  <path fill="#d9dfe5" d="M49.348 81.43c-.008 1.375 10.801 2.235 19.457 1.549 4.023-.32 6.501-.91 6.498-1.55.008-1.375-10.802-2.236-19.457-1.55-4.024.32-6.502.91-6.498 1.55"/>
</svg>
